packages/kaspersky-hexa-ui-icons/src/iconsSVGs/48/PrivacyProtection.svg

<svg width="48" height="48" viewBox="0 0 48 48" fill="none" xmlns="http://www.w3.org/2000/svg">
<path fill-rule="evenodd" clip-rule="evenodd" d="M24.5 0L6 10.35V28.77C6 41.59 23.43 47.64 24.18 47.89L24.5 48L24.82 47.89C25.56 47.64 43 41.65 43 28.77V10.35L24.5 0ZM24.5 45.88C22.92 45.29 15.86 42.45 11.5 37.39V35.69C11.4966 34.0048 12.6443 32.5352 14.28 32.13L18.21 31.13C19.7737 30.7343 21.0942 29.6902 21.84 28.26C23.5041 29.1401 25.4959 29.1401 27.16 28.26C27.9058 29.6902 29.2263 30.7343 30.79 31.13L34.72 32.13C36.3557 32.5352 37.5034 34.0048 37.5 35.69V37.4C33.14 42.47 26.08 45.3 24.5 45.88ZM24.5 26.94C20.66 26.94 19 21.25 19 18.35C19 15.3124 21.4624 12.85 24.5 12.85C27.5376 12.85 30 15.3124 30 18.35C30 21.25 28.34 26.94 24.5 26.94ZM41 28.77C40.9874 30.8472 40.4398 32.886 39.41 34.69C39.0169 32.4945 37.3732 30.7334 35.21 30.19L31.28 29.19C30.1411 28.9036 29.2081 28.0895 28.77 27C31.01 24.69 32 20.79 32 18.32C32 14.1779 28.6421 10.82 24.5 10.82C20.3579 10.82 17 14.1779 17 18.32C17 20.79 18 24.69 20.23 27C19.7893 28.0857 18.8567 28.8957 17.72 29.18L13.79 30.18C11.6283 30.7196 9.98424 32.4771 9.59 34.67C8.56188 32.8726 8.01427 30.8406 8 28.77V11.52L24.5 2.29L41 11.52V28.77Z"  fill="currentColor"/>
</svg>

<svg xmlns="http://www.w3.org/2000/svg" width="48" height="48" fill="none" viewBox="0 0 48 48"><path fill="currentColor" fill-rule="evenodd" d="M24.5 0 6 10.35v18.42c0 12.82 17.43 18.87 18.18 19.12l.32.11.32-.11C25.56 47.64 43 41.65 43 28.77V10.35zm0 45.88c-1.58-.59-8.64-3.43-13-8.49v-1.7c-.0034-1.6852 1.1443-3.1548 2.78-3.56l3.93-1a5.66 5.66 0 0 0 3.63-2.87 5.69 5.69 0 0 0 5.32 0 5.66 5.66 0 0 0 3.63 2.87l3.93 1c1.6357.4052 2.7834 1.8748 2.78 3.56v1.71c-4.36 5.07-11.42 7.9-13 8.48m0-18.94c-3.84 0-5.5-5.69-5.5-8.59 0-3.0376 2.4624-5.5 5.5-5.5s5.5 2.4624 5.5 5.5c0 2.9-1.66 8.59-5.5 8.59M41 28.77a12.09 12.09 0 0 1-1.59 5.92 5.67 5.67 0 0 0-4.2-4.5l-3.93-1A3.67 3.67 0 0 1 28.77 27c2.24-2.31 3.23-6.21 3.23-8.68 0-4.1421-3.3579-7.5-7.5-7.5s-7.5 3.3579-7.5 7.5c0 2.47 1 6.37 3.23 8.68a3.67 3.67 0 0 1-2.51 2.18l-3.93 1a5.66 5.66 0 0 0-4.2 4.49A12.05 12.05 0 0 1 8 28.77V11.52l16.5-9.23L41 11.52z" clip-rule="evenodd"/></svg>
